X:185
T:Drummond's Rant
R:Reel
B:The Athole Collection
M:C|
L:1/8
K:A Minor
c|BGdB ecdc|BGdB ABcA|BGdB ecdB|A/B/c FA fcc:|
|:f|e/^f/g dg BGdB|e/^f/g d=f AFcA|e/^f/g dg BGdB|A/B/c FA fcc:|
|:d|BG G/G/G G/G/G dc|BG G/G/G ABcA|BG G/G/G G/G/G dB|A/B/c FA fcc:|
|:f|e/^f/g dg BGdB|e/^f/g d=f AfcA|e/^f/g dg BGdB|A/B/c FA fcc:|

